src/assets/Imgs/lightMenu/credit.svg

<svg fill="none" height="24" viewBox="0 0 24 24" width="24" xmlns="http://www.w3.org/2000/svg"><path d="m10 9c0 .55228-.44772 1-1 1s-1-.44772-1-1 .44772-1 1-1 1 .44772 1 1z" fill="#1a1323"/><path d="m16 15c0 .5523-.4477 1-1 1s-1-.4477-1-1 .4477-1 1-1 1 .4477 1 1z" fill="#1a1323"/><g stroke="#1a1323" stroke-width="1.5"><path d="m10.054 2.65818c1.1212-.95554 2.7704-.95554 3.8917 0l.6826.58172c.4805.40948 1.0779.65693 1.7072.70715l.894.07135c1.4685.11719 2.6347 1.28332 2.7519 2.75185l.0713.89402c.0502.6293.2977 1.22671.7072 1.70721l.5817.68262c.9555 1.1213.9555 2.7704 0 3.8917l-.5817.6826c-.4095.4805-.657 1.0779-.7072 1.7072l-.0713.894c-.1172 1.4686-1.2834 2.6347-2.7519 2.7519l-.894.0713c-.6293.0502-1.2267.2977-1.7072.7072l-.6826.5817c-1.1213.9555-2.7705.9555-3.8917 0l-.68265-.5817c-.48049-.4095-1.07791-.657-1.70721-.7072l-.89402-.0713c-1.46852-.1172-2.63466-1.2833-2.75185-2.7519l-.07134-.894c-.05022-.6293-.29768-1.2267-.70715-1.7072l-.58172-.6826c-.95554-1.1213-.95554-2.7704 0-3.8917l.58172-.68262c.40947-.4805.65693-1.07791.70715-1.70721l.07134-.89402c.11719-1.46853 1.28333-2.63466 2.75185-2.75185l.89402-.07135c.6293-.05022 1.22672-.29767 1.70721-.70715z"/><path d="m9 15 6-6" stroke-linecap="round"/></g></svg>

<svg width="24" height="24" viewBox="0 0 24 24" fill="none" xmlns="http://www.w3.org/2000/svg">
<g id="points">
<path id="Ellipse 685" d="M10 9C10 9.55228 9.55228 10 9 10C8.44772 10 8 9.55228 8 9C8 8.44772 8.44772 8 9 8C9.55228 8 10 8.44772 10 9Z" fill="#1A1323"/>
<path id="Ellipse 686" d="M16 15C16 15.5523 15.5523 16 15 16C14.4477 16 14 15.5523 14 15C14 14.4477 14.4477 14 15 14C15.5523 14 16 14.4477 16 15Z" fill="#1A1323"/>
<path id="Star 6" d="M10.054 2.65818C11.1752 1.70264 12.8244 1.70264 13.9457 2.65818L14.6283 3.2399C15.1088 3.64938 15.7062 3.89683 16.3355 3.94705L17.2295 4.0184C18.698 4.13559 19.8642 5.30172 19.9814 6.77025L20.0527 7.66427C20.1029 8.29357 20.3504 8.89098 20.7599 9.37148L21.3416 10.0541C22.2971 11.1754 22.2971 12.8245 21.3416 13.9458L20.7599 14.6284C20.3504 15.1089 20.1029 15.7063 20.0527 16.3356L19.9814 17.2296C19.8642 18.6982 18.698 19.8643 17.2295 19.9815L16.3355 20.0528C15.7062 20.103 15.1088 20.3505 14.6283 20.76L13.9457 21.3417C12.8244 22.2972 11.1752 22.2972 10.054 21.3417L9.37135 20.76C8.89086 20.3505 8.29344 20.103 7.66414 20.0528L6.77012 19.9815C5.3016 19.8643 4.13546 18.6982 4.01827 17.2296L3.94693 16.3356C3.89671 15.7063 3.64925 15.1089 3.23978 14.6284L2.65806 13.9458C1.70252 12.8245 1.70252 11.1754 2.65806 10.0541L3.23978 9.37148C3.64925 8.89098 3.89671 8.29357 3.94693 7.66427L4.01827 6.77025C4.13546 5.30172 5.3016 4.13559 6.77012 4.0184L7.66414 3.94705C8.29344 3.89683 8.89086 3.64938 9.37135 3.2399L10.054 2.65818Z" stroke="#1A1323" stroke-width="1.5"/>
<path id="Vector 1887" d="M9 15L15 9" stroke="#1A1323" stroke-width="1.5" stroke-linecap="round"/>
</g>
</svg>
